X:5657
T:Rosewood, The
O:england
R:jig
D:Boys of the Lough: Sweet Rural Shade
M:6/8
L:1/8
K:A
agf efg|aed cBA|aga cde|fdB B2g|
agf efg|aed cBA|def Bcd|1 cAG A2g:|2 cAG Aed||
|:cde Ace|fdc dfe|^def Bdf|gee ebg|
agf edc|fed cBA|def Bcd|1 cAG Aed:|2 cAG A2g||


